.local/share/icons/Gruvbox-Plus-Dark/panel/16/gpm-hibernate.svg

<svg xmlns="http://www.w3.org/2000/svg" width="16" height="16" version="1.1">
 <defs>
  <style id="current-color-scheme" type="text/css">
   .ColorScheme-Text { color:#ebdbb2; } .ColorScheme-Highlight { color:#458588; }
  </style>
 </defs>
 <path style="fill:currentColor" class="ColorScheme-Text" d="M 1.018959,1.0002458 C -0.33039237,0.97432991 -0.34428757,3.0057835 1.0052919,2.9983063 V 13.98764 C 0.9862466,15.333483 3.006064,15.336844 3.002634,14.0013 H 2.998724 V 1.9700075 C 2.9823279,1.4325888 2.5466551,1.0002999 2.0049393,1.0002458 Z M 3.9983765,1.999276 v 10.989333 h 1.0055046 v 1.272204 c 0,0.726096 0.7263062,0.725857 0.7263062,0.725857 h 0.273341 0.9996475 v -1.998061 h 1.9992935 v 1.994159 h 1.9992947 v -1.994159 h 1.999294 v 1.99611 h 0.999647 0.273342 c 0,0 0.726306,2.39e-4 0.726306,-0.725859 v -1.270251 h 0.300676 C 15.688692,12.988609 16,12.682558 16,12.301776 V 2.6861093 C 16,2.3053269 15.688692,1.999276 15.301029,1.999276 Z m 2.0051518,1.9980606 h 3.9985887 c 0.838573,-3.496e-4 1.304946,0.9691083 0.780974,1.6234241 L 8.0848251,8.992488 h 1.9172919 c 1.351845,-0.019111 1.351845,2.017167 0,1.998061 H 6.0035283 C 5.1649552,10.990898 4.6985819,10.02144 5.2225539,9.3671243 L 7.9208209,5.995397 H 6.0035283 c -1.3518457,0.019102 -1.3518457,-2.0171671 0,-1.9980604 z m 6.5055167,0 h 1.991484 c 0.399153,8.51e-5 0.637212,0.4446352 0.415869,0.77659 l -1.476042,2.2205008 h 1.060173 c 0.6759,-0.00949 0.6759,1.008559 0,0.9990303 h -1.991484 c -0.400037,0.0015 -0.639659,-0.4438991 -0.417822,-0.7765902 l 1.476042,-2.2205007 h -1.05822 c -0.675923,0.00955 -0.675923,-1.0085836 0,-0.9990302 z"/>
</svg>

<svg width="16" height="16" version="1.1" xmlns="http://www.w3.org/2000/svg">
  <defs>
    <style id="current-color-scheme" type="text/css">.ColorScheme-Text { color:#ebdbb2; } .ColorScheme-Highlight { color:#458588; } .ColorScheme-NeutralText { color:#fe8019; } .ColorScheme-PositiveText { color:#689d6a; } .ColorScheme-NegativeText { color:#fb4934; }</style>
  </defs>
  <path class="ColorScheme-Text" d="m1.019 1c-1.349-0.02592-1.363 2.006-0.01367 1.998v10.99c-0.01905 1.346 2.001 1.349 1.997 0.01366h-0.00391v-12.03c-0.0164-0.5374-0.4521-0.9697-0.9938-0.9698zm2.979 0.999v10.99h1.006v1.272c0 0.7261 0.7263 0.7259 0.7263 0.7259h1.273v-1.998h1.999v1.994h1.999v-1.994h1.999v1.996h1.273s0.7263 2.39e-4 0.7263-0.7259v-1.27h0.3007c0.3877 0 0.699-0.3061 0.699-0.6868v-9.616c0-0.3808-0.3113-0.6868-0.699-0.6868zm2.005 1.998h3.999c0.8386-3.496e-4 1.305 0.9691 0.781 1.623l-2.698 3.372h1.917c1.352-0.01911 1.352 2.017 0 1.998h-3.999c-0.8386 3.49e-4 -1.305-0.9691-0.781-1.623l2.698-3.372h-1.917c-1.352 0.0191-1.352-2.017 0-1.998zm6.506 0h1.991c0.3992 8.51e-5 0.6372 0.4446 0.4159 0.7766l-1.476 2.221h1.06c0.6759-0.00949 0.6759 1.009 0 0.999h-1.991c-0.4 0.0015-0.6397-0.4439-0.4178-0.7766l1.476-2.221h-1.058c-0.6759 0.00955-0.6759-1.009 0-0.999z" fill="currentColor"/>
</svg>
